lib/assets/icons/svg/outlined-action-visibility.svg

<svg xmlns="http://www.w3.org/2000/svg" viewBox="0 0 24 24"><path d="M12.015 19.36a10 10 0 0 1-9.35-6.54c-.2-.532-.2-1.118 0-1.65a10 10 0 0 1 9.35-6.53 10 10 0 0 1 9.32 6.5c.2.532.2 1.118 0 1.65a9.91 9.91 0 0 1-5.93 5.93 10.098 10.098 0 0 1-3.39.64zm0-13.72a9 9 0 0 0-8.4 5.88c-.12.305-.12.645 0 .95 2.344 6.462 10.804 7.964 15.229 2.704a8.946 8.946 0 0 0 1.561-2.704 1.351 1.351 0 0 0 0-.95 9 9 0 0 0-8.39-5.88zm0 10.69c-3.279 0-5.329-3.55-3.689-6.39 1.639-2.84 5.739-2.84 7.378 0a4.26 4.26 0 0 1 .571 2.13 4.27 4.27 0 0 1-4.26 4.26zm0-7.52c-2.51 0-4.078 2.717-2.823 4.89 1.255 2.173 4.391 2.173 5.646 0a3.263 3.263 0 0 0 .437-1.63 3.27 3.27 0 0 0-3.26-3.26z"/></svg>

<svg viewBox="0 0 24 24" xmlns="http://www.w3.org/2000/svg">
  <path  d="M 12.015 19.36 C 7.838 19.346 4.11 16.739 2.665 12.82 C 2.465 12.288 2.465 11.702 2.665 11.17 C 4.113 7.255 7.841 4.652 12.015 4.64 C 16.17 4.66 19.881 7.247 21.335 11.14 C 21.535 11.672 21.535 12.258 21.335 12.79 C 20.333 15.547 18.162 17.718 15.405 18.72 C 14.32 19.126 13.173 19.343 12.015 19.36 Z M 12.015 5.64 C 8.263 5.657 4.916 8.001 3.615 11.52 C 3.495 11.825 3.495 12.165 3.615 12.47 C 5.959 18.932 14.419 20.434 18.844 15.174 C 19.519 14.371 20.047 13.456 20.405 12.47 C 20.52 12.164 20.52 11.826 20.405 11.52 C 19.106 8.004 15.763 5.662 12.015 5.64 Z M 12.015 16.33 C 8.736 16.33 6.686 12.78 8.326 9.94 C 9.965 7.1 14.065 7.1 15.704 9.94 C 16.078 10.588 16.275 11.322 16.275 12.07 C 16.27 14.42 14.365 16.325 12.015 16.33 Z M 12.015 8.81 C 9.505 8.81 7.937 11.527 9.192 13.7 C 10.447 15.873 13.583 15.873 14.838 13.7 C 15.124 13.204 15.275 12.642 15.275 12.07 C 15.27 10.272 13.813 8.815 12.015 8.81 Z"/>
</svg>
